assets/Sparkling heart/Flat/sparkling_heart_flat.svg

<svg width="32" height="32" viewBox="0 0 32 32" fill="none" xmlns="http://www.w3.org/2000/svg">
<path d="M21.0222 4.15959C18.1822 4.65959 16.0022 7.99959 16.0022 7.99959C16.0022 7.99959 13.8222 4.65959 10.9822 4.15959C3.98216 2.92959 1.08217 9.06959 2.25217 13.6496C4.34217 21.7896 16.0022 28.9096 16.0022 28.9096C16.0022 28.9096 27.6722 21.7896 29.7522 13.6496C30.9322 9.06959 28.0322 2.92959 21.0222 4.15959Z" fill="#F92F60"/>
<path d="M24.6221 8.98956C24.7221 9.21956 24.9021 9.40956 25.1321 9.50956L26.0921 9.92956C26.3821 10.0696 26.3821 10.4796 26.0921 10.6196L25.1221 11.0496C24.8921 11.1496 24.7121 11.3396 24.6121 11.5696L23.8521 13.3596C23.7121 13.6396 23.3021 13.6396 23.1621 13.3596L22.4021 11.5696C22.3021 11.3396 22.1221 11.1496 21.8921 11.0496L20.9221 10.6196C20.6321 10.4796 20.6321 10.0696 20.9221 9.92956L21.8921 9.49956C22.1221 9.39956 22.3021 9.20956 22.4021 8.97956L23.1721 7.19956C23.3121 6.91956 23.7221 6.91956 23.8621 7.19956L24.6221 8.98956Z" fill="#FCD53F"/>
<path d="M10.552 18.8796C10.742 19.3096 11.072 19.6596 11.502 19.8496L13.282 20.6496C13.812 20.9096 13.812 21.6596 13.282 21.9196L11.502 22.7196C11.072 22.9196 10.732 23.2596 10.552 23.6896L9.14197 26.9996C8.88197 27.5296 8.13197 27.5296 7.87197 26.9996L6.46197 23.6896C6.27197 23.2596 5.94197 22.9096 5.51197 22.7196L3.73197 21.9196C3.20197 21.6596 3.20197 20.9096 3.73197 20.6496L5.51197 19.8496C5.94197 19.6496 6.28197 19.3096 6.46197 18.8796L7.87197 15.5696C8.13197 15.0396 8.88197 15.0396 9.14197 15.5696L10.552 18.8796Z" fill="#FCD53F"/>
</svg>

<svg xmlns="http://www.w3.org/2000/svg" width="32" height="32" fill="none"><path fill="#F92F60" d="M21.022 4.16c-2.84.5-5.02 3.84-5.02 3.84s-2.18-3.34-5.02-3.84c-7-1.23-9.9 4.91-8.73 9.49 2.09 8.14 13.75 15.26 13.75 15.26s11.67-7.12 13.75-15.26c1.18-4.58-1.72-10.72-8.73-9.49Z"/><path fill="#FCD53F" d="M24.622 8.99c.1.23.28.42.51.52l.96.42c.29.14.29.55 0 .69l-.97.43c-.23.1-.41.29-.51.52l-.76 1.79c-.14.28-.55.28-.69 0l-.76-1.79a.996.996 0 0 0-.51-.52l-.97-.43a.382.382 0 0 1 0-.69l.97-.43c.23-.1.41-.29.51-.52l.77-1.78c.14-.28.55-.28.69 0l.76 1.79ZM10.552 18.88c.19.43.52.78.95.97l1.78.8c.53.26.53 1.01 0 1.27l-1.78.8c-.43.2-.77.54-.95.97L9.142 27a.706.706 0 0 1-1.27 0l-1.41-3.31c-.19-.43-.52-.78-.95-.97l-1.78-.8a.706.706 0 0 1 0-1.27l1.78-.8c.43-.2.77-.54.95-.97l1.41-3.31a.706.706 0 0 1 1.27 0l1.41 3.31Z"/></svg>
